X: 1
T: Andy De Jarlis'
R: jig
M: 6/8
L: 1/8
K: Emaj
EGB EGB|EGB c2B|EGB EGB|=DFA B2A|
EGB EGB|EGB c2a|gfe Bcd|1 e3 e3:|2 e3 e2a||
|:gfg efg|aga c2e|~f3 fge|dcB c2B|
gbg efg|aga c2e|fgf Bcd|1 e3 e2a:|2 e3 e3||


Tune 838	Setting 13998

